!!!COM: Bach, Johann Sebastian
!!!OPR: Joh. Seb. Bachs vierstimmige Choralgesänge
!!!XEN: Four-part Chorales
!!!OTL: 29. Christus, der ist mein Leben
!!!SCT: BWV 282
!!!SCA: Thematisch-systematisches Verzeichnis der musikalischen Werke Johann Sebastian Bach: Bach-Werke-Verzeichnis (Schmieder)
!!!YOR: Bach Gesellschaft Edition xxxix
!!!ENC: Steven Rasmussen
!!!CDT: 1685/3//-1750/7/28/
!!!OCY: Deutschland
!!!YEC: Copyright (c) 1994, 2000 Center for Computer Assisted Research in the Humanities
!!!YEM: Rights to all derivative editions reserved
!!!YEN: United States of America
**kern	**silbe	**kern	**silbe	**kern	**silbe	**kern	**silbe
*I:[SOPRANO]	*I:[SOPRANO]	*I:[ALTO]	*I:[ALTO]	*I:[TENORE]	*I:[TENORE]	*I:[BASSO]	*I:[BASSO]
*clefG2	*	*clefG2	*	*clefGv2	*	*clefF4	*
*k[f#]	*	*k[f#]	*	*k[f#]	*	*k[f#]	*
*G:	*	*G:	*	*G:	*	*G:	*
*M3/4	*	*M3/4	*	*M3/4	*	*M3/4	*
4g	Chri-	4d	.	4B	.	4G	.
=1	=1	=1	=1	=1	=1	=1	=1
2b	-stus,	2g	.	2d	.	2G	.
4a	der	4f#	.	4d	.	4D	.
=2	=2	=2	=2	=2	=2	=2	=2
2b	ist	2g	.	2d	.	4G	.
.	.	.	.	.	.	4F#	.
4cc	mein	4g	.	4c	.	4E	.
=3	=3	=3	=3	=3	=3	=3	=3
2.dd	Le-	4.g	.	4.B	.	8BBL	.
.	.	.	.	.	.	8CJ	.
.	.	.	.	.	.	2D	.
.	.	16f#LL	.	16ALL	.	.	.
.	.	16eJJ	.	16GJJ	.	.	.
.	.	4f#	.	4A	.	.	.
=4	=4	=4	=4	=4	=4	=4	=4
2b;	-ben,	2d;	.	2G;	.	2GG;	.
4r	.	4r	.	4r	.	4r	.
=5	=5	=5	=5	=5	=5	=5	=5
[2.ee	Ster-	2.r	.	2.r	.	2.r	.
=6	=6	=6	=6	=6	=6	=6	=6
2.ee]	.	[2.fn	Ster-	2.r	.	2.r	.
=7	=7	=7	=7	=7	=7	=7	=7
[2.dd	.	2.f_	.	[2.G#	Ster-	2.r	.
=8	=8	=8	=8	=8	=8	=8	=8
2.dd]	.	2.f]	.	2.G#]	.	[2.C	Ster-
=9	=9	=9	=9	=9	=9	=9	=9
[2.cc	.	2.e	.	[2.A	.	4.C]	.
.	.	.	.	.	.	8BBL	.
.	.	.	.	.	.	8C	.
.	.	.	.	.	.	8AAJ	.
=10	=10	=10	=10	=10	=10	=10	=10
8ccL]	.	4f#	.	4A]	.	4D	.
8bJ	.	.	.	.	.	.	.
4cc;	-ben	4f#;	-ben	4A;	-ben	4D;	-ben
4r	.	4r	.	4r	.	4r	.
=11	=11	=11	=11	=11	=11	=11	=11
4b	ist	8gL	.	8GL	.	8EL	.
.	.	8f#J	.	8BJ	.	8DJ	.
8eeL	mein	4e	.	8BL	.	4C	.
8ccJ	.	.	.	16AL	.	.	.
.	.	.	.	16BJJ	.	.	.
4a	Ge-	8f#L	.	4c	.	4C	.
.	.	8eJ	.	.	.	.	.
=12	=12	=12	=12	=12	=12	=12	=12
2b;	-winn;	2d#;	.	2F#;	.	2BB;	.
4dd	dem	4g	.	4d	.	4B	.
=13	=13	=13	=13	=13	=13	=13	=13
2ee	tu'	2g	.	2c	.	2B	.
4ff#	ich	4a	.	4c	.	4A	.
=14	=14	=14	=14	=14	=14	=14	=14
2gg	mich	2b	.	2d	.	4G	.
.	.	.	.	.	.	4B	.
4ff#	er-	4a	.	4d	.	4d	.
=15	=15	=15	=15	=15	=15	=15	=15
2.ee	-ge-	8bL	.	4.d	.	8GL	.
.	.	8aJ	.	.	.	8F#J	.
.	.	4.g	.	.	.	4E	.
.	.	.	.	16c#LL	.	.	.
.	.	.	.	16BJJ	.	.	.
.	.	.	.	4c#	.	4A	.
.	.	16aLL	.	.	.	.	.
.	.	16gJJ	.	.	.	.	.
=16	=16	=16	=16	=16	=16	=16	=16
2dd;	-ben,	2f#;	.	2A;	.	2D;	.
4b	mit	4g	.	4e	.	8EL	.
.	.	.	.	.	.	8DJ	.
=17	=17	=17	=17	=17	=17	=17	=17
2a	Freud'	4g	.	4e	.	4C#	.
.	.	4f#	.	4B	.	4D#	.
4g	fahr'	4e	.	4B	.	4E	.
=18	=18	=18	=18	=18	=18	=18	=18
2g	ich	4e	.	8cL	.	4C	.
.	.	.	.	8BJ	.	.	.
.	.	2d	.	(8AL	.	2D	.
.	.	.	.	8BJ	.	.	.
4f#	da-	.	.	4c)	.	.	.
=19	=19	=19	=19	=19	=19	=19	=19
2g;	-hin.	2d;	.	2B;	.	2GG;	.
==|!	==|!	==|!	==|!	==|!	==|!	==|!	==|!
*-	*-	*-	*-	*-	*-	*-	*-
!!!RWG: Key is interpreted using the Humdrum key tool.
!!!END: 1994/05/11
!!!EMD: Converted from MuseData to Humdrum Dec 19, 2000, by Andreas Kornstaedt using muse2kern.
!!!EED: Craig Stuart Sapp
!!!EEV: 2024/03/31
!!!ONB: Some non-unicode characters
